public/icons/people-chat.svg

<svg width="24" height="25" viewBox="0 0 24 25" fill="none" xmlns="http://www.w3.org/2000/svg">
<g clip-path="url(#clip0_573_340)">
<path d="M19.0312 15.8018H4.96875C3.03023 15.8018 1.45312 17.3789 1.45312 19.3174V23.6299C1.45312 24.0182 1.76794 24.333 2.15625 24.333H10.5938C10.9821 24.333 11.2969 24.0182 11.2969 23.6299V20.0205H12.7031V23.6299C12.7031 24.0182 13.0179 24.333 13.4062 24.333H21.8438C22.2321 24.333 22.5469 24.0182 22.5469 23.6299V19.3174C22.5469 17.3789 20.9698 15.8018 19.0312 15.8018ZM9.89062 22.9268H5.67188V19.3174C5.67188 18.9291 5.35706 18.6143 4.96875 18.6143C4.58044 18.6143 4.26562 18.9291 4.26562 19.3174V22.9268H2.85938V19.3174C2.85938 18.1543 3.80564 17.208 4.96875 17.208H7.78125C8.94436 17.208 9.89062 18.1543 9.89062 19.3174V22.9268ZM13.4062 18.6143H11.2261C11.1203 18.095 10.8996 17.617 10.5919 17.208H19.0312C20.1944 17.208 21.1406 18.1543 21.1406 19.3174V22.9268H19.7344V19.3174C19.7344 18.9291 19.4196 18.6143 19.0312 18.6143C18.6429 18.6143 18.3281 18.9291 18.3281 19.3174V22.9268H14.1094V19.3174C14.1094 18.9291 13.7946 18.6143 13.4062 18.6143Z" fill="#AE9F91"/>
<path d="M10.5938 12.2861C10.5938 10.3476 9.01664 8.77051 7.07812 8.77051C5.13961 8.77051 3.5625 10.3476 3.5625 12.2861C3.5625 14.2246 5.13961 15.8018 7.07812 15.8018C9.01664 15.8018 10.5938 14.2246 10.5938 12.2861ZM7.07812 14.3955C5.91502 14.3955 4.96875 13.4492 4.96875 12.2861C4.96875 11.123 5.91502 10.1768 7.07812 10.1768C8.24123 10.1768 9.1875 11.123 9.1875 12.2861C9.1875 13.4492 8.24123 14.3955 7.07812 14.3955Z" fill="#AE9F91"/>
<path d="M20.4375 12.2861C20.4375 10.3476 18.8604 8.77051 16.9219 8.77051C14.9834 8.77051 13.4062 10.3476 13.4062 12.2861C13.4062 14.2246 14.9834 15.8018 16.9219 15.8018C18.8604 15.8018 20.4375 14.2246 20.4375 12.2861ZM16.9219 14.3955C15.7588 14.3955 14.8125 13.4492 14.8125 12.2861C14.8125 11.123 15.7588 10.1768 16.9219 10.1768C18.085 10.1768 19.0312 11.123 19.0312 12.2861C19.0312 13.4492 18.085 14.3955 16.9219 14.3955Z" fill="#AE9F91"/>
<path d="M6.375 7.36426H10.3025L11.5028 8.56459C11.6401 8.70188 11.82 8.77051 12 8.77051C12.18 8.77051 12.3599 8.70188 12.4972 8.56459L13.6975 7.36426H17.625C19.5635 7.36426 21.1406 5.78715 21.1406 3.84863C21.1406 1.91012 19.5635 0.333008 17.625 0.333008H6.375C4.43648 0.333008 2.85938 1.91012 2.85938 3.84863C2.85938 5.78715 4.43648 7.36426 6.375 7.36426ZM6.375 1.73926H17.625C18.7881 1.73926 19.7344 2.68552 19.7344 3.84863C19.7344 5.01174 18.7881 5.95801 17.625 5.95801H13.4062C13.2197 5.95801 13.0409 6.03207 12.9091 6.16393L12 7.07302L11.0909 6.16393C10.9591 6.03207 10.7803 5.95801 10.5938 5.95801H6.375C5.21189 5.95801 4.26562 5.01174 4.26562 3.84863C4.26562 2.68552 5.21189 1.73926 6.375 1.73926Z" fill="#AE9F91"/>
<path d="M7.78125 4.55176C8.16958 4.55176 8.48438 4.23696 8.48438 3.84863C8.48438 3.46031 8.16958 3.14551 7.78125 3.14551C7.39292 3.14551 7.07812 3.46031 7.07812 3.84863C7.07812 4.23696 7.39292 4.55176 7.78125 4.55176Z" fill="#AE9F91"/>
<path d="M12 4.55176C12.3883 4.55176 12.7031 4.23696 12.7031 3.84863C12.7031 3.46031 12.3883 3.14551 12 3.14551C11.6117 3.14551 11.2969 3.46031 11.2969 3.84863C11.2969 4.23696 11.6117 4.55176 12 4.55176Z" fill="#AE9F91"/>
<path d="M16.2188 4.55176C16.6071 4.55176 16.9219 4.23696 16.9219 3.84863C16.9219 3.46031 16.6071 3.14551 16.2188 3.14551C15.8304 3.14551 15.5156 3.46031 15.5156 3.84863C15.5156 4.23696 15.8304 4.55176 16.2188 4.55176Z" fill="#AE9F91"/>
</g>
<defs>
<clipPath id="clip0_573_340">
<rect width="24" height="24" fill="white" transform="translate(0 0.333008)"/>
</clipPath>
</defs>
</svg>

<svg xmlns="http://www.w3.org/2000/svg" fill="none" viewBox="0 0 24 25"><g fill="#ae9f91" clip-path="url(#a)"><path d="M19.031 15.802H4.97a3.52 3.52 0 0 0-3.516 3.515v4.313c0 .388.315.703.703.703h8.438a.703.703 0 0 0 .703-.703v-3.61h1.406v3.61c0 .388.315.703.703.703h8.438a.703.703 0 0 0 .703-.703v-4.313a3.52 3.52 0 0 0-3.516-3.515m-9.14 7.125H5.67v-3.61a.703.703 0 0 0-1.405 0v3.61H2.859v-3.61c0-1.163.947-2.109 2.11-2.109H7.78c1.163 0 2.11.946 2.11 2.11zm3.515-4.313h-2.18a3.5 3.5 0 0 0-.634-1.406h8.44c1.162 0 2.109.946 2.109 2.11v3.609h-1.407v-3.61a.703.703 0 0 0-1.406 0v3.61H14.11v-3.61a.703.703 0 0 0-.703-.703m-2.813-6.328a3.52 3.52 0 0 0-3.516-3.515 3.52 3.52 0 0 0-3.516 3.515 3.52 3.52 0 0 0 3.516 3.516 3.52 3.52 0 0 0 3.516-3.516m-3.516 2.11a2.11 2.11 0 0 1-2.11-2.11c0-1.163.947-2.11 2.11-2.11s2.11.947 2.11 2.11-.947 2.11-2.11 2.11m13.36-2.11a3.52 3.52 0 0 0-3.516-3.515 3.52 3.52 0 0 0-3.516 3.515 3.52 3.52 0 0 0 3.516 3.516 3.52 3.52 0 0 0 3.515-3.516m-3.516 2.11a2.11 2.11 0 0 1-2.11-2.11c0-1.163.947-2.11 2.11-2.11s2.11.947 2.11 2.11-.947 2.11-2.11 2.11M6.375 7.364h3.928l1.2 1.2a.7.7 0 0 0 .994 0l1.2-1.2h3.928a3.52 3.52 0 0 0 3.516-3.515A3.52 3.52 0 0 0 17.625.333H6.375a3.52 3.52 0 0 0-3.516 3.516 3.52 3.52 0 0 0 3.516 3.515m0-5.625h11.25c1.163 0 2.11.947 2.11 2.11s-.947 2.109-2.11 2.109h-4.219a.7.7 0 0 0-.497.206L12 7.073l-.91-.91a.7.7 0 0 0-.496-.205H6.375a2.11 2.11 0 0 1-2.11-2.11c0-1.162.947-2.109 2.11-2.109"/><path d="M7.781 4.552a.703.703 0 1 0 0-1.406.703.703 0 0 0 0 1.406m4.219 0a.703.703 0 1 0 0-1.406.703.703 0 0 0 0 1.406m4.219 0a.703.703 0 1 0 0-1.406.703.703 0 0 0 0 1.406"/></g><defs><clipPath id="a"><path fill="#fff" d="M0 .333h24v24H0z"/></clipPath></defs></svg>
